!!!SOCIAL_FUNCTION:	songs connected with legends
!!!PDT:	1929
!!!OTL: No_7_Song_of_Elder_Brother_After_Returning_to_Life.krn
!!!REG: Southwest
!!!LANG: Non-Tone
!!!LING_GROUP: Uto-Aztecan
**kern
*staff1
=1-
*clefF4
*k[b-e-a-d-g-c-]
*M2/4
4E-\
8.E-\L
16E-\Jk
=2
4G-\
4G-\
=3||
*M3/4
4G-\
8.F\L
16G-\Jk
12A-\L
12A-\
12G-\J
=4
8G-\L
16G-\L
16E-\JJ
4.F\
16G-\LL
16F\JJ
=5||
*M2/4
8.E-\L
16E-\Jk
8.E-\L
16D-\Jk
=6||
*M3/4
8.E-\L
16E-\Jk
4E-\
4r
=7!|:
*M2/4
4E-\
8.E-\L
16E-\Jk
=8
4G-\
4G-\
=9||
*M3/4
4G-\
8.F\L
16G-\Jk
12A-\L
12A-\
12G-\J
=10
8G-\L
16G-\L
16E-\JJ
4.F\
16G-\LL
16F\JJ
=11||
*M2/4
8.E-\L
16E-\Jk
8.E-\L
16D-\Jk
=12||
*M3/4
8.E-\L
16E-\Jk
4E-\
4r
=13||
*M2/4
8.BB-/L
16E-/Jk
8.E-\L
16E-\Jk
=14||
*M3/4
8.E-\L
16E-\Jk
2E-\
==:|!
*-
